X:4581
T:Neil Of The Glenties
O:england
R:Highland
C:Ed Reavy
M:4/4
L:1/8
N:Ed's close friend, who died some time ago.
N:He was a true traditional player who knew how
N:to "brighten" tunes in the right places.
N:Ed called him "a little known master of his trade."
N:He was a superb player of highlands and a great
N:Donegal fiddler.
K:D
df (3edc dFFA|GEEG FDD<c|df (3edc dFFA|GEAG FDD<c|
df (3edc dFFA|GEE^G AFD<c|df (3edc dFFA|GECE D2 D2|
fgaf defd|cdef gece|fgaf defd|AFGE FD D2|fgaf defd|
cdef gece|(3fga ec defd|AFGE FD D2:||


